assets/imgs/report/legislature/intro/scroll-more.svg

<svg fill="none" height="25" viewBox="0 0 36 25" width="36" xmlns="http://www.w3.org/2000/svg"><g fill="#fff"><path d="m2.25047.611196 15.71913 10.719704 15.7371-11.3309 1.9439 2.69034-17.6331 12.70306-17.644941-12.03192z"/><path d="m2.25047 10.2186 15.71913 10.7197 15.7371-11.33088 1.9439 2.69028-17.6331 12.7031-17.644941-12.0319z"/></g></svg>

<svg width="36" height="25" viewBox="0 0 36 25" fill="none" xmlns="http://www.w3.org/2000/svg">
<path d="M2.25047 0.611196L17.9696 11.3309L33.7067 0L35.6506 2.69034L18.0175 15.3934L0.372559 3.36148L2.25047 0.611196Z" fill="white"/>
<path d="M2.25047 10.2186L17.9696 20.9383L33.7067 9.60742L35.6506 12.2977L18.0175 25.0008L0.372559 12.9689L2.25047 10.2186Z" fill="white"/>
</svg>
